X:1
T:Kelbrook, 11.12.11.12
T:J. Riley
T:Kelbrook, 11.12.11.12
T:Public Domain
C:J. Riley
Z:Public Domain
%%score ( 1 2 ) ( 3 4 )
L:1/8
M:4/4
K:G
V:1 treble 
V:2 treble 
V:3 bass 
V:4 bass 
V:1
 G2 | [GB]4 [GB]2 [Fc]2 | [Gd]4 [DB]2 [DG]2 | [FA]4 [EG]2 [FA]2 | [GB]6 [Gc][Gc] | %5
 [GB]4 [Gc]2 [Gd]2 | [Ge]4 [Gd]2 [FB]2 | (E2 D2) [^CF]2 [CG]2 | [DA]6 [DA][DA] | %9
 [Dd]4 [Dc]2 [DB]2 | (e2 c2) ([FA]2 [DF]2) | G4 [FA]2 [=FB]2 | [Ec]6 [Ec][Fc] | [GB]4 [FA]2 [EG]2 | %14
 (E2 c2) [EB]2 [EA]2 | [DG]4 [DA]2 [DF]2 | [DG]6 |] %17
V:2
 G2 | x8 | x8 | x8 | x8 | x8 | x8 | G4 x4 | x8 | x8 | E4 x4 | G4 x4 | x8 | x8 | E4 x4 | x8 | x6 |] %17
V:3
 [G,B,]2 | [G,D]4 [B,D]2 [A,C]2 | [G,B,]4 [B,,G,]2 [B,,G,]2 | [D,D]4 [E,B,]2 [D,D]2 | %4
 [G,D]6 [E,C][E,C] | [G,D]4 [E,C]2 [D,B,]2 | [C,C]4 [B,,D]2 [D,D]2 | [E,B,]4 [A,,A,]2 [A,,E,]2 | %8
 [D,F,]6 [D,F,][D,F,] | [B,,G,]4 [A,,F,]2 [G,,G,]2 | (G,2 A,2) ([D,D]2 [D,C]2) | %11
 [E,B,]4 [D,D]2 [G,C]2 | [C,C]6 [A,,C][A,,C] | [B,,D]4 [D,C]2 [E,B,]2 | (C,2 A,,2) [B,,D]2 [C,C]2 | %15
 [D,B,]4 [D,C]2 [D,A,]2 | [G,,B,]6 |] %17
V:4
 x2 | x8 | x8 | x8 | x8 | x8 | x8 | x8 | x8 | x8 | C,4 x4 | x8 | x8 | x8 | C4 x4 | x8 | x6 |] %17

